X: 1
T: Carter MacKenzie's Reel
C: Kevin Chiasson
R: reel
S: page in Concord Slow Scottish Session collection
Z: printed 2015 John Chambers <jc:trillian.mit.edu>
M: C|
L: 1/8
K: A
|: "A"EAAE A2AB | ceaf ecBA | "Bm"FBBA B2Bc | "E7"dBcA BAFA |
y3 "A"EAAE A2AB | ceaf ecBA |  "D"d2fd "A"ceaf |1 "E7"ecdB "A"cAAF :|2 "E7"ecdB "A"cAAB |]
|: "A"Aaag a2ed | cAAc dBcA | "Bm"FBBA B2Bc | "E7"dBcA BAFA |
[1 "A"Eaag a2ed | cAce aecA |  "D"d2fd "A"ceaf | "E7"ecdB "A"cAAB :|
[2 "A"EAAE A2AB | ceaf ecBA |  "D"d2fd "A"ceaf | "E7"ecdB "A"cAA2 |]
